X: 13668
T: Follow Me Up To Carlow
R: reel
M: 4/4
K: Adorian
A2AG EFG2|ABcd edcB|A2AG EFG2|A2(3BAG A4:|
efgf efg2|B2BA GAB2|efgf efg2|B2BG A4|
efgf efg2|B2BA GAB2|efge afge|B2BG A4||

